!!!COM: Gabriel Faure/
!!!CNT: Francais
!!!TXO: Francais
!!!OTL: Fleur jete/e.
!!!LYR: Armand Silvestre
!!!OPS: Op. 39
!!!ONM: No. 2
!!!ENC: Jacob Pegg
!!!YOR: Album of Twenty Songs (Vingt Me/lodies,) Volume II
!!!YOR: Edward B. Marks Music Corporation, RCA Building, Radio
!!!YOR: City, New York 20, N.Y.
!!!ODT: 1884/
!!NB: Vocal melody and text only encoded.
!!NB: First instance of melodic material only encoded.
**kern	**silbe
*clef G2	*
*k[b-e-a-d-]	*
*M6/8	*
*MM170	*
!!created: 2/11/04 14:00
!!proofed and posted: 2/26/04 12:28
!!edit time: 39 min.
=1	=1
2r	.
4r	.
=2	=2
4r	.
8r	.
8r	.
8r	.
{8cc	{Em-
=3	=3
8.ff	-por-
16ee-	-te
16dd-	ma
16cc	fo-
4b-	-li-
8b-	-e
=4	=4
8cc	Au
8.cc	gre/
16a-	du
4.f}	vent,}
=5	=5
{8f	{Fleur
8g	en-
8a-	-chan-
[4cc	-tant
16cc]	|
16cc	cueil-
=6	=6
4.ee-	-li-
4cc}	-e}
8r	.
=7	=7
8r	.
{8a-	{Et
8g	je-
8f	-te/
8.a-	en
16cc	re^-
=8	=8
[4.ff	-vant
4ff]}	|}
{8ff	{Em-
=9	=9
8.aa-	-por-
16ee-	-te
16cc	ma
16dd-	fo-
4ee-	-li-
8a-	-e Au
=10	=10
[4.cc	gre
4cc]	|
8b-	du
=11	=11
[2.a-	vent.
=12	=12
8a-]}	|}
8r	.
8r	.
4r	.
8r	.
=13	=13
{8dd-	{Com-
8dd-	-me
8dd-	la
4cc	fleu
8b-	fau-
=14	=14
[4.dd-	-che/-
4dd-]}	-e,}
{8d-	{Pe/-
=15	=15
4f	-rit
8f	l'a-
[4.e-	-mour
=16	=16
4.e-]}	|}
8r	.
8r	.
{8cc	{La
=17	=17
4.ee-	main
8ee-	qui
8.dd-	t'a
16cc	tou-
=18	=18
[4ee-	-che/-
8ee-]	-e
4dd-	Fuit
8b--	ma
=19	=19
4cc-	main
16a-	sans
16b--	re-
[4.cc-	-tour,
=20	=20
4.cc-_	|
8cc-]}	|}
8r	.
8r	.
=21	=21
{8een	{Com-
8een	-me
8een	la
4ddn	fleur
8cc#	fau-
=22	=22
[4.een	-che/-
4een]	-e,
8een	Pe-
=23	=23
4aa-	-rit
8een	l'a-
[4.gg	-mour
=24	=24
4.gg]}	|}
8r	.
8r	.
{8cc	{La
=25	=25
4.ee-	main
8ee-	qui
8.dd-	t'a
16cc	tou-
=26	=26
[4ee-	-che/
8ee-]	-e
4dd-	Fuit
8dd-	ma
=27	=27
4cc	main
16a-	sans
16b-	re-
[4.cc	-tour.
=28	=28
4.cc_	|
8cc]}	|}
8r	.
8r	.
=29	=29
2r	.
4r	.
=30	=30
4r	.
8r	.
8r	.
{8.cc	{Que
16cc	le
=31	=31
(8.ff	vent
16ee-)	|
16dd-	qui
16cc	te
4b-	se\-
8b-	-che,
=32	=32
8cc	O^
8.cc	pau-
16a-	-vre
4.f}	fleur,}
=33	=33
{8f	{Tout
8g	a\
[8a-	l'heu-
8a-]	|
8.cc	-re
16cc	si
=34	=34
4.ee-	frai-
4.cc}	-che}
=35	=35
8r	.
{8a-	{Et
8g	de-
8f	-main
8.a-	sans
16cc	cou-
=36	=36
[4.ff	-leur,
8ff]	|
8.ff	Que
16ff	le
=37	=37
(8.aa-	vent
16ee-)	|
16cc	qui
16dd-	te
4ee-	se\-
8ee-	-che,
=38	=38
[4.gg-	O^
8gg-]	|
8.cc	pau-
16cc	-vre
=39	=39
*M9/8	*
[4.cc#	fleur,
8cc#]}	|}
8r	.
8r	.
8r	.
{8.een	{Que
16een	le
=40	=40
(8.aan	vent
16een)	|
16cc#	qui
16ddn	te
4.een	se\-
4.een}	-che,}
=41	=41
{[4.aa-	{Se\-
4.aa-]	|
4aa-	-che
8gg	mon
=42	=42
*M6/8	*
[2.ff	coeur.
=43	=43
2.ff_	|
=44	=44
8ff]}	|}
8r	.
8r	.
4r	.
8r	.
*-	*-
